!!!!SEGMENT: pl-wtm--r-1226--003_lodwigowski-edward-stefan--blyslo-ranne-ziolko.krn
!!!cenid: 18xx:1919
!!!COM: Łodwigowski, Edward Stefan
!!!COM-rismID: pe30111147
!!!CDT: 1815/08/14-1895/11/12
!!!CNT: Polish
!!!OTL: Błysło ranne ziółko
!!!PDT:
!!!AGN:
!!!SMS-siglum: PL-Wtm
!!!SMS-shelfmark: R 1226
!!!SMS-shelfwork: 003 W
!!!SMS-variant:
!!!SMS-altvar:
!!!NIFC-rismSourceID: 1001083976
!!!NIFC-islandoraID:
!!!URL-pdf-islandora:
!!!URL-scan:
!!!ONB-nifc: UWAGA: No. 51
!!!OMD: Andantino
!!!AIN: 1 empty
!!!key:
**kern	**fing	**kern	**fing	**dynam
*part1	*part1	*part1	*part1	*part1
*staff2	*staff2	*staff1	*staff1	*
*>[A,A,B]	*>[A,A,B]	*>[A,A,B]	*>[A,A,B]	*>[A,A,B]
*>A	*>A	*>A	*>A	*>A
*Iempty	*	*Iforte	*	*
*	*	*I"Fortepian	*	*
*clefG2	*	*clefG2	*	*
*k[b-e-a-]	*	*k[b-e-a-]	*	*
*c:	*	*c:	*	*
*M3/8	*	*M3/8	*	*
*all\right	*	*all\right	*	*
=1	=1	=1	=1	=1
!	!	!LO:TX:a:t=Błysło ranne ziółko. I. F. Dobrzyńskiego	!	!
!	!	!LO:TX:a:t=No 51.	!	!LO:DY:rj
8gL 8e- 8c/	.	16.gg\LL	5	p
.	.	32gg\JJk	.	.
8g 8e- 8c/	.	(8cc\L	1	.
8gJ 8f 8c/	.	8ddJ 8bn\	1 2	.
=2	=2	=2	=2	=2
8gL 8e- 8c/	.	8ee- 8cc|\)	.	.
8g 8f 8c/	.	4dd 4bn^\	.	.
8gJ 8f 8c/	.	.	.	.
=3	=3	=3	=3	=3
.	.	(8qcc/	.	.
8gL 8e- 8c/	.	16.gg\LL)	.	.
.	.	32gg\JJk	.	.
8g 8e- 8c/	.	(8cc\L	.	.
8gJ 8f 8c/	.	8ddJ 8bn\	.	.
=4	=4	=4	=4	=4
8gL 8e- 8c/	.	8ee- 8cc|\)	.	.
8g 8f 8c/	.	4dd 4bn^\	.	.
8gJ 8f 8c/	.	.	.	.
!!LO:LB:g=original
=5	=5	=5	=5	=5
.	.	(8qcc/	.	.
8gL 8e- 8c/	.	16.ee-\LL)	.	.
.	.	32ee-\JJk	.	.
8g 8e- 8c/	.	(8dd\L	.	.
8gJ 8e- 8c/	.	8cc\J	.	.
*clefF4	*	*	*	*
=6	=6	=6	=6	=6
*^	*	*	*	*
4F/	8F\L	.	8ee-|\)	.	.
.	8d 8A-\	.	4dd^\	.	.
8rGGyy	8dJ 8A-\	.	.	.	.
=7	=7	=7	=7	=7	=7
4.G/	8G\L	.	16.g/LL	1	.
.	.	.	32g/JJk	.	.
.	8f 8d\	.	(8an/L	.	.
.	8fJ 8d\	.	8bn/J	.	.
.	.	.	.	.	<
=8	=8	=8	=8	=8	=8
*	*	*below	*	*	*
4.A-/	8A-\L	4	16cc\LL	1	.
.	.	.	16dd\JJ	.	.
.	8e- 8c\	.	4ee-\)	.	[
.	8e-J 8c\	.	.	.	.
=9	=9	=9	=9	=9	=9
4.E-/	8E-\L	.	16.ee-\LL	.	.
.	.	.	(32ee-\JJk	.	.
.	8c 8G\	.	8dd\L	.	.
.	8cJ 8G\	.	8cc\J	.	.
!!LO:LB:g=original
=10	=10	=10	=10	=10	=10
4.F/	8F\L	.	8ee-|\)	.	.
.	8d 8A-\	.	4dd^\	.	>
.	8dJ 8A-\	.	.	.	]]
=11	=11	=11	=11	=11	=11
4.G/	8G\L	.	16.g/LL	.	.
.	.	.	32g/JJk	.	.
.	8f 8Bn\	.	(8.ee-\L	.	.
!	!	!	!LO:TX:b:i:t=ralen_:dur=2e:ext=cd	!	!
.	8fJ 8B\	.	.	.	.
.	.	.	16dd\Jk)	.	.
*v	*v	*	*	*	*
=12	=12	=12	=12	=12
8e- 8c\	.	(16dd\LL	.	.
.	.	16cc\JJ)	.	.
4e- 4c\	.	4cc\	.	.
*clefG2	*	*	*	*
=13:|!	=13:|!	=13:|!	=13:|!	=13:|!
*>B	*>B	*>B	*>B	*>B
*	*	*8va	*	*
*	*	*^	*	*
!	!	!LO:TX:a:t=Przegrywka	!	!	!
!	!	!LO:TX:b:i:t=a tempo.	!	!	!
8gL 8f 8c'/	.	16ddd/LL	(4.bbn\	2	.
.	.	16eee-/JJ	.	.	.
8g 8f 8c'/	.	8fff/L	.	.	.
8gJ 8f 8c'/	.	16fff/L	.	.	.
.	.	16ggg/JJ	.	.	p
=14	=14	=14	=14	=14	=14
8gL 8e- 8c'/	.	16eee-/LL	8ccc\)	.	.
.	.	16ddd/JJ	.	.	.
8g 8e- 8c'/	.	8ccc/L	8r	.	.
8gJ 8e- 8c'/	.	8ccc/J	8r	.	.
!!LO:LB:g=original
=15	=15	=15	=15	=15	=15
8gL 8f 8c/	.	16ddd/LL	(4.bbn\	.	.
.	.	16eee-/	.	.	.
8g 8f 8c/	.	16fff/	.	.	.
.	.	16eeen/	.	.	.
8gJ 8f 8c/	.	16fff/	.	.	.
.	.	16ggg/JJ	.	.	.
=16	=16	=16	=16	=16	=16
8gL 8e- 8c/	.	16eee-/LL	8ccc\)	.	.
.	.	16ddd/JJ	.	.	.
8g 8e- 8c/	.	4ccc/	8r	.	.
8gJ 8e- 8c/	.	.	8r	.	.
*	*	*v	*v	*	*
*	*	*X8va	*	*
=17	=17	=17	=17	=17
*	*	*^	*	*
!	!	!LO:TX:a:t=loco	!	!	!
8gL 8f 8c/	.	16dd/LL	(4.bn\	.	.
.	.	16ee-/JJ	.	.	.
8g 8f 8c/	.	8ff/L	.	.	.
8gJ 8f 8c/	.	16ff/L	.	.	.
.	.	16gg/JJ	.	.	.
=18	=18	=18	=18	=18	=18
8gL 8e- 8c/	.	16ee-M/LL	8cc\)	.	.
.	.	16dd/JJ	.	.	.
8g 8e- 8c/	.	8cc/L	8r	.	.
8gJ 8e- 8c/	.	8cc/J	8r	.	.
=19	=19	=19	=19	=19	=19
8gL 8f 8c/	.	16dd/LL	4.bn\	.	.
.	.	16ee-/	.	.	.
.	.	8qgg/	.	.	.
8g 8f 8c/	.	16ff/	.	.	.
.	.	16een/	.	.	.
8gJ 8f 8c/	.	16ff/	.	.	.
.	.	16gg/JJ	.	.	.
=20	=20	=20	=20	=20	=20
.	.	8qgg/	.	.	.
8g 8e- 8c/	.	8cc/	8cc\	.	.
4g 4e- 4c/	.	4cc/	4cc\	.	.
*	*	*v	*v	*	*
==	==	==	==	==
*-	*-	*-	*-	*-
!!!system-decoration: {p1}
!!!RDF**kern: > = above
!!!RDF**kern: < = below
!!!RDF**kern: | = vertical stroke
!!!ENC: Andrzej Kubiczek
!!!END: 2021-05-01
!!!ENC: Marcin Jachim
!!!END: 2021-04-16
